static/sponsors/bugsee.svg

<?xml version="1.0" encoding="UTF-8"?>
<svg width="200px" height="200px" viewBox="0 0 200 200" version="1.1" xmlns="http://www.w3.org/2000/svg" xmlns:xlink="http://www.w3.org/1999/xlink">
    <!-- Generator: Sketch 42 (36781) - http://www.bohemiancoding.com/sketch -->
    <title>Logo with text Copy</title>
    <desc>Created with Sketch.</desc>
    <defs></defs>
    <g id="Page-3" stroke="none" stroke-width="1" fill="none" fill-rule="evenodd">
        <g id="Logo-with-text-Copy">
            <ellipse id="Oval-1" fill="#FFFFFF" cx="133" cy="55.5" rx="14" ry="12.5"></ellipse>
            <path d="M134.977552,35.6864273 C136.475455,36.302109 137.951719,36.9593079 139.404896,37.6565821 C141.240632,35.7727542 143.736112,34.7013498 146.321241,34.614977 C147.719452,36.8450932 148.220062,39.568665 147.637916,42.185894 C164.898564,52.9703903 177.969311,69.778598 183.869995,89.6464666 L177.450279,89.646465 C172.078537,78.1036603 160.329899,70.096169 146.700845,70.096169 C127.997477,70.096169 112.835402,85.1762874 112.835402,103.778556 C112.835402,107.173651 113.340448,110.451425 114.279892,113.541611 L102.965783,113.541611 L102.965783,103.119421 L99.609639,103.119421 L99.609639,113.541611 L89.4165661,113.541611 L89.4165661,103.119421 L75.9919881,103.119421 L75.9919881,113.541611 L65.7958752,113.541611 L65.7958752,103.119421 L62.4397307,103.119421 L62.4397307,113.541611 L52.2436178,113.541611 L52.2436178,113.541611 L52.2436178,103.119421 L45.5313288,103.119421 L45.5313288,113.541611 L18,113.541611 C18,67.0359388 55.9051888,29.3356429 102.663609,29.3356429 C110.960331,29.3356429 118.978315,30.5226086 126.555263,32.7351183 C127.656621,31.1064044 129.215417,29.8294884 131.025956,29.0641793 C133.138036,30.6507592 134.585427,33.0238866 134.977551,35.6864267 L134.977552,35.6864273 Z M132.803854,63.3548539 C137.479696,63.3548539 141.270215,59.5848243 141.270215,54.9342571 C141.270215,50.2836899 137.479696,46.5136603 132.803854,46.5136603 C128.128012,46.5136603 124.337493,50.2836899 124.337493,54.9342571 C124.337493,59.5848243 128.128012,63.3548539 132.803854,63.3548539 Z M135.851744,60.9970868 C133.981407,60.9970868 132.465199,59.4890749 132.465199,57.6288481 C132.465199,55.7686212 133.981407,54.2606094 135.851744,54.2606094 C137.72208,54.2606094 139.238288,55.7686212 139.238288,57.6288481 C139.238288,59.4890749 137.72208,60.9970868 135.851744,60.9970868 Z" id="Combined-Shape" fill="#FB5252"></path>
            <path d="M18.3242188,154 L18.3242188,121.296875 L29.5322266,121.296875 C31.2991625,121.296875 32.8863862,121.472817 34.2939453,121.824707 C35.7015044,122.176597 36.8919222,122.71191 37.8652344,123.430664 C38.8385465,124.149418 39.5834935,125.066563 40.1000977,126.182129 C40.6167018,127.297694 40.875,128.619133 40.875,130.146484 C40.875,131.643888 40.4707072,132.99153 39.6621094,134.189453 C38.8535116,135.387376 37.6705807,136.315752 36.1132812,136.974609 C37.0566453,137.229168 37.8764614,137.59977 38.5727539,138.086426 C39.2690465,138.573082 39.8455381,139.14583 40.3022461,139.804688 C40.7589541,140.463545 41.0996083,141.189775 41.3242188,141.983398 C41.5488292,142.777022 41.6611328,143.600582 41.6611328,144.454102 C41.6611328,146.026375 41.4028346,147.407709 40.8862305,148.598145 C40.3696263,149.78858 39.6209359,150.784338 38.6401367,151.585449 C37.6593375,152.38656 36.4689198,152.989256 35.0688477,153.393555 C33.6687756,153.797854 32.0852953,154 30.3183594,154 L18.3242188,154 Z M24.0068359,139.243164 L24.0068359,149.462891 L30.3183594,149.462891 C31.2467494,149.462891 32.0665655,149.3431 32.777832,149.103516 C33.4890986,148.863931 34.0843075,148.523277 34.5634766,148.081543 C35.0426456,147.639809 35.402017,147.111982 35.6416016,146.498047 C35.8811861,145.884112 36.0009766,145.202803 36.0009766,144.454102 C36.0009766,142.836906 35.574223,141.564132 34.7207031,140.635742 C33.8671832,139.707352 32.4821059,139.243164 30.5654297,139.243164 L24.0068359,139.243164 Z M24.0068359,135.06543 L29.5771484,135.06543 C31.3440844,135.06543 32.7254182,134.66488 33.7211914,133.86377 C34.7169646,133.062659 35.2148438,131.928393 35.2148438,130.460938 C35.2148438,128.843742 34.7543991,127.675785 33.8334961,126.957031 C32.9125931,126.238278 31.4788509,125.878906 29.5322266,125.878906 L24.0068359,125.878906 L24.0068359,135.06543 Z M71.2646484,121.296875 L71.2646484,143.173828 C71.2646484,145.045582 70.946455,146.685214 70.3100586,148.092773 C69.6736622,149.500333 68.8014378,150.675777 67.6933594,151.619141 C66.5852809,152.562505 65.2900465,153.270017 63.8076172,153.741699 C62.3251879,154.213381 60.7379642,154.449219 59.0458984,154.449219 C57.2939366,154.449219 55.6730218,154.213381 54.1831055,153.741699 C52.6931892,153.270017 51.4016982,152.562505 50.3085938,151.619141 C49.2154893,150.675777 48.3619822,149.500333 47.7480469,148.092773 C47.1341115,146.685214 46.8271484,145.045582 46.8271484,143.173828 L46.8271484,121.296875 L52.4873047,121.296875 L52.4873047,143.173828 C52.4873047,144.341803 52.6407862,145.348791 52.9477539,146.194824 C53.2547216,147.040857 53.6927055,147.740883 54.2617188,148.294922 C54.830732,148.848961 55.5195272,149.256997 56.328125,149.519043 C57.1367228,149.781089 58.0426382,149.912109 59.0458984,149.912109 C60.0491587,149.912109 60.9588175,149.781089 61.7749023,149.519043 C62.5909872,149.256997 63.2797823,148.848961 63.8413086,148.294922 C64.4028348,147.740883 64.8370753,147.040857 65.144043,146.194824 C65.4510106,145.348791 65.6044922,144.341803 65.6044922,143.173828 L65.6044922,121.296875 L71.2646484,121.296875 Z M102.395508,149.754883 C102.051105,150.204104 101.571943,150.701983 100.958008,151.248535 C100.344072,151.795087 99.554204,152.304197 98.5883789,152.775879 C97.6225538,153.247561 96.4620836,153.644367 95.1069336,153.966309 C93.7517836,154.28825 92.1608164,154.449219 90.3339844,154.449219 C88.2825418,154.449219 86.3995854,154.097334 84.6850586,153.393555 C82.9705318,152.689775 81.4993551,151.671556 80.2714844,150.338867 C79.0436137,149.006178 78.0890334,147.366546 77.4077148,145.419922 C76.7263963,143.473298 76.3857422,141.249687 76.3857422,138.749023 L76.3857422,136.592773 C76.3857422,134.107084 76.6927053,131.887217 77.3066406,129.933105 C77.920576,127.978994 78.8040307,126.328132 79.9570312,124.980469 C81.1100318,123.632806 82.5175698,122.6071 84.1796875,121.90332 C85.8418052,121.199541 87.7285051,120.847656 89.8398438,120.847656 C91.8313902,120.847656 93.568352,121.105954 95.0507812,121.622559 C96.5332105,122.139163 97.7835236,122.861649 98.8017578,123.790039 C99.8199921,124.718429 100.621091,125.822748 101.205078,127.103027 C101.789065,128.383307 102.178384,129.787102 102.373047,131.314453 L96.8027344,131.314453 C96.6679681,130.460933 96.4433609,129.674808 96.1289062,128.956055 C95.8144516,128.237301 95.3839546,127.615888 94.8374023,127.091797 C94.2908501,126.567706 93.6170287,126.155926 92.815918,125.856445 C92.0148072,125.556965 91.0602269,125.407227 89.9521484,125.407227 C88.6194595,125.407227 87.4627328,125.654294 86.4819336,126.148438 C85.5011344,126.642581 84.6850619,127.365067 84.0336914,128.315918 C83.382321,129.266769 82.8956722,130.434726 82.5737305,131.819824 C82.2517888,133.204922 82.0908203,134.780916 82.0908203,136.547852 L82.0908203,138.749023 C82.0908203,140.545907 82.2854798,142.136875 82.6748047,143.521973 C83.0641296,144.907071 83.6219039,146.071284 84.3481445,147.014648 C85.0743851,147.958013 85.9578398,148.676755 86.9985352,149.170898 C88.0392305,149.665042 89.2184179,149.912109 90.5361328,149.912109 C91.509445,149.912109 92.3442348,149.848471 93.0405273,149.721191 C93.7368199,149.593912 94.3245419,149.432944 94.8037109,149.238281 C95.28288,149.043619 95.6759425,148.830242 95.9829102,148.598145 C96.2898778,148.366047 96.5406891,148.145183 96.7353516,147.935547 L96.7353516,141.53418 L89.9970703,141.53418 L89.9970703,137.22168 L102.395508,137.22168 L102.395508,149.754883 Z M125.732422,145.577148 C125.732422,144.918291 125.635092,144.330569 125.44043,143.813965 C125.245767,143.297361 124.890139,142.821942 124.373535,142.387695 C123.856931,141.953448 123.145675,141.537925 122.239746,141.141113 C121.333817,140.744301 120.169603,140.328778 118.74707,139.894531 C117.189771,139.430336 115.752285,138.898766 114.43457,138.299805 C113.116855,137.700843 111.982589,137.004561 111.031738,136.210938 C110.080887,135.417314 109.33594,134.503911 108.796875,133.470703 C108.25781,132.437495 107.988281,131.254564 107.988281,129.921875 C107.988281,128.60416 108.26904,127.391282 108.830566,126.283203 C109.392093,125.175125 110.181961,124.216801 111.200195,123.408203 C112.21843,122.599605 113.438795,121.970705 114.861328,121.521484 C116.283861,121.072263 117.856111,120.847656 119.578125,120.847656 C121.419931,120.847656 123.074537,121.113441 124.541992,121.64502 C126.009447,122.176598 127.24853,122.899084 128.259277,123.8125 C129.270025,124.725916 130.044919,125.785313 130.583984,126.990723 C131.12305,128.196132 131.392578,129.480136 131.392578,130.842773 L125.732422,130.842773 C125.732422,130.04915 125.608888,129.319177 125.361816,128.652832 C125.114745,127.986488 124.736656,127.409996 124.227539,126.92334 C123.718422,126.436684 123.074548,126.058595 122.295898,125.789062 C121.517249,125.51953 120.596359,125.384766 119.533203,125.384766 C118.529943,125.384766 117.661462,125.497069 116.927734,125.72168 C116.194007,125.94629 115.583824,126.26074 115.097168,126.665039 C114.610512,127.069338 114.25114,127.5485 114.019043,128.102539 C113.786945,128.656578 113.670898,129.255531 113.670898,129.899414 C113.670898,131.112311 114.243647,132.123043 115.38916,132.931641 C116.534674,133.740238 118.282866,134.488929 120.633789,135.177734 C122.475595,135.7168 124.070306,136.315752 125.417969,136.974609 C126.765632,137.633467 127.884924,138.378414 128.775879,139.209473 C129.666834,140.040531 130.329425,140.976395 130.763672,142.01709 C131.197919,143.057785 131.415039,144.229486 131.415039,145.532227 C131.415039,146.909838 131.141767,148.14892 130.595215,149.249512 C130.048663,150.350103 129.270025,151.285966 128.259277,152.057129 C127.24853,152.828292 126.024421,153.419757 124.586914,153.831543 C123.149407,154.243329 121.547209,154.449219 119.780273,154.449219 C118.208,154.449219 116.658211,154.235842 115.130859,153.809082 C113.603508,153.382322 112.233405,152.738448 111.020508,151.877441 C109.807611,151.016434 108.83057,149.942064 108.089355,148.654297 C107.348141,147.36653 106.977539,145.854175 106.977539,144.117188 L112.660156,144.117188 C112.660156,145.150396 112.843585,146.037594 113.210449,146.778809 C113.577313,147.520023 114.078936,148.126462 114.715332,148.598145 C115.351728,149.069827 116.104162,149.414224 116.972656,149.631348 C117.84115,149.848471 118.777013,149.957031 119.780273,149.957031 C121.756846,149.957031 123.242996,149.556482 124.23877,148.755371 C125.234543,147.95426 125.732422,146.894863 125.732422,145.577148 Z M155.515625,139.400391 L142.083984,139.400391 L142.083984,149.462891 L157.78418,149.462891 L157.78418,154 L136.401367,154 L136.401367,121.296875 L157.626953,121.296875 L157.626953,125.878906 L142.083984,125.878906 L142.083984,134.908203 L155.515625,134.908203 L155.515625,139.400391 Z M181.525391,139.400391 L168.09375,139.400391 L168.09375,149.462891 L183.793945,149.462891 L183.793945,154 L162.411133,154 L162.411133,121.296875 L183.636719,121.296875 L183.636719,125.878906 L168.09375,125.878906 L168.09375,134.908203 L181.525391,134.908203 L181.525391,139.400391 Z" id="BUGSEE" fill="#1E3046"></path>
        </g>
    </g>
</svg>

<svg width="200" height="200" xmlns="http://www.w3.org/2000/svg"><g fill="none" fill-rule="evenodd"><ellipse fill="#FFF" cx="133" cy="55.5" rx="14" ry="12.5"/><path d="M134.978 35.686a84.432 84.432 0 014.427 1.97 10.138 10.138 0 016.916-3.041 10.135 10.135 0 011.317 7.57c17.26 10.785 30.331 27.594 36.232 47.461h-6.42a33.882 33.882 0 00-30.75-19.55c-18.703 0-33.865 15.08-33.865 33.683 0 3.395.505 6.672 1.445 9.763h-11.314v-10.423H99.61v10.423H89.417v-10.423H75.992v10.423H65.796v-10.423H62.44v10.423H52.244v-10.423H45.53v10.423H18c0-46.506 37.905-84.206 84.664-84.206a85.118 85.118 0 0123.891 3.4 10.193 10.193 0 014.471-3.672 10.153 10.153 0 013.952 6.622zm-2.174 27.669c4.676 0 8.466-3.77 8.466-8.42 0-4.651-3.79-8.421-8.466-8.421-4.676 0-8.467 3.77-8.467 8.42s3.791 8.42 8.467 8.42zm3.048-2.358a3.377 3.377 0 01-3.387-3.368 3.377 3.377 0 013.387-3.368 3.377 3.377 0 013.386 3.368 3.377 3.377 0 01-3.386 3.368z" fill="#FB5252"/><path d="M18.324 154v-32.703h11.208c1.767 0 3.354.176 4.762.528 1.408.352 2.598.887 3.571 1.606a7.04 7.04 0 012.235 2.751c.517 1.116.775 2.437.775 3.964 0 1.498-.404 2.846-1.213 4.043-.808 1.198-1.991 2.127-3.549 2.786.944.254 1.763.625 2.46 1.111a6.86 6.86 0 011.73 1.719 7.27 7.27 0 011.021 2.178c.225.794.337 1.618.337 2.471 0 1.572-.258 2.954-.775 4.144a7.81 7.81 0 01-2.246 2.987c-.98.802-2.171 1.404-3.571 1.809-1.4.404-2.984.606-4.75.606H18.323zm5.683-14.757v10.22h6.311c.929 0 1.749-.12 2.46-.36.711-.24 1.306-.58 1.785-1.021.48-.442.839-.97 1.079-1.584.24-.614.359-1.295.359-2.044 0-1.617-.427-2.89-1.28-3.818-.854-.929-2.239-1.393-4.156-1.393h-6.558zm0-4.178h5.57c1.767 0 3.148-.4 4.144-1.201s1.494-1.936 1.494-3.403c0-1.617-.46-2.785-1.382-3.504-.92-.719-2.354-1.078-4.3-1.078h-5.526v9.186zm47.258-13.768v21.877c0 1.872-.319 3.511-.955 4.919-.636 1.407-1.509 2.583-2.617 3.526-1.108.944-2.403 1.651-3.885 2.123-1.483.471-3.07.707-4.762.707-1.752 0-3.373-.236-4.863-.707-1.49-.472-2.781-1.18-3.874-2.123-1.094-.943-1.947-2.119-2.561-3.526-.614-1.408-.92-3.047-.92-4.92v-21.876h5.66v21.877c0 1.168.153 2.175.46 3.02.307.847.745 1.547 1.314 2.1a5.219 5.219 0 002.066 1.225c.809.262 1.715.393 2.718.393s1.913-.13 2.729-.393c.816-.262 1.505-.67 2.066-1.224.562-.554.996-1.254 1.303-2.1.307-.846.46-1.853.46-3.021v-21.877h5.66zm31.13 28.458c-.344.45-.823.947-1.437 1.494-.614.546-1.404 1.055-2.37 1.527-.965.472-2.126.868-3.481 1.19-1.355.322-2.946.483-4.773.483-2.051 0-3.934-.352-5.649-1.055a12.242 12.242 0 01-4.414-3.055c-1.227-1.333-2.182-2.972-2.863-4.92-.682-1.946-1.022-4.17-1.022-6.67v-2.156c0-2.486.307-4.706.92-6.66.615-1.954 1.498-3.605 2.651-4.953a11.248 11.248 0 014.223-3.077c1.662-.703 3.549-1.055 5.66-1.055 1.991 0 3.728.258 5.21.775 1.483.516 2.734 1.239 3.752 2.167a10.11 10.11 0 012.403 3.313c.584 1.28.973 2.684 1.168 4.211h-5.57a9.592 9.592 0 00-.674-2.358 5.74 5.74 0 00-1.292-1.864c-.546-.524-1.22-.936-2.021-1.236-.801-.299-1.756-.449-2.864-.449-1.333 0-2.49.247-3.47.741-.98.495-1.797 1.217-2.448 2.168-.652.95-1.138 2.119-1.46 3.504-.322 1.385-.483 2.96-.483 4.728v2.201c0 1.797.194 3.388.584 4.773.39 1.385.947 2.55 1.673 3.493a7.217 7.217 0 002.65 2.156c1.041.494 2.22.741 3.538.741.973 0 1.808-.064 2.505-.19.696-.128 1.284-.29 1.763-.484.479-.194.872-.408 1.179-.64a5.82 5.82 0 00.752-.662v-6.402h-6.738v-4.312h12.399v12.533zm23.337-4.178c0-.659-.097-1.246-.292-1.763-.194-.517-.55-.992-1.066-1.426-.517-.435-1.228-.85-2.134-1.247-.906-.397-2.07-.812-3.493-1.246a33.648 33.648 0 01-4.312-1.595c-1.318-.6-2.452-1.295-3.403-2.09a8.944 8.944 0 01-2.235-2.74c-.54-1.033-.809-2.215-.809-3.548 0-1.318.281-2.53.843-3.639a8.623 8.623 0 012.37-2.875c1.017-.808 2.238-1.437 3.66-1.887 1.423-.449 2.995-.673 4.717-.673 1.842 0 3.497.265 4.964.797 1.467.532 2.707 1.254 3.717 2.168a9.328 9.328 0 013.133 7.03h-5.66c0-.794-.123-1.524-.37-2.19a4.548 4.548 0 00-1.134-1.73c-.51-.486-1.153-.864-1.932-1.134-.779-.27-1.7-.404-2.763-.404-1.003 0-1.872.112-2.605.337-.734.224-1.344.539-1.83.943a3.721 3.721 0 00-1.079 1.438 4.603 4.603 0 00-.348 1.796c0 1.213.573 2.224 1.718 3.033 1.146.808 2.894 1.557 5.245 2.246 1.842.539 3.436 1.138 4.784 1.797 1.348.658 2.467 1.403 3.358 2.234.89.832 1.553 1.767 1.988 2.808.434 1.04.651 2.212.651 3.515 0 1.378-.273 2.617-.82 3.718a7.94 7.94 0 01-2.336 2.807c-1.01.771-2.235 1.363-3.672 1.775-1.438.411-3.04.617-4.807.617a17.2 17.2 0 01-4.65-.64c-1.526-.427-2.897-1.07-4.11-1.932a10.066 10.066 0 01-2.93-3.223c-.742-1.287-1.112-2.8-1.112-4.537h5.682c0 1.033.184 1.92.55 2.662a4.967 4.967 0 001.505 1.82c.637.47 1.39.815 2.258 1.032.868.217 1.804.326 2.807.326 1.977 0 3.463-.4 4.459-1.202.996-.8 1.493-1.86 1.493-3.178zm29.784-6.177h-13.432v10.063h15.7V154h-21.383v-32.703h21.226v4.582h-15.543v9.03h13.432v4.491zm26.01 0h-13.432v10.063h15.7V154H162.41v-32.703h21.226v4.582h-15.543v9.03h13.431v4.491z" fill="#1E3046"/></g></svg>
